svg/twitch.svg

<svg height="16" viewBox="0 0 16 16" width="16" xmlns="http://www.w3.org/2000/svg"><path d="m1.94 1-.94 2.403v9.82h3.343v1.777h1.88l1.777-1.776h2.717l3.656-3.657v-8.567zm11.18 7.94-2.09 2.09h-3.343l-1.777 1.776v-1.776h-2.82v-8.776h10.03zm-2.09-4.283v3.653h-1.254v-3.653zm-3.343 0v3.653h-1.254v-3.653z" fill="#111" fill-rule="evenodd"/></svg>

<svg aria-hidden="true" role="img" class="icon" xmlns="http://www.w3.org/2000/svg" width="16" height="16" viewBox="0 0 16 16"><path fill="#111" fill-rule="evenodd" d="M1.94 1L1 3.403v9.82h3.343V15h1.88L8 13.224h2.717l3.656-3.657V1H1.94zm11.18 7.94l-2.09 2.09H7.687L5.91 12.806V11.03H3.09V2.254h10.03V8.94zm-2.09-4.283V8.31H9.776V4.657h1.254zm-3.343 0V8.31H6.433V4.657h1.254z"/></svg>
